icons/arrows-in-horizontal.svg

<svg xmlns="http://www.w3.org/2000/svg" width="24" height="24" viewBox="0 0 24 24">
  <path d="M17.4511818,6.97254617 C17.8436995,6.66172071 18.4155449,6.68762283 18.7781746,7.05025253 C19.1686989,7.44077682 19.1686989,8.0739418 18.7781746,8.46446609 L18.7781746,8.46446609 L16.2431968,10.9994439 L20.7279221,11 L20.8533599,11.0077914 C21.3464369,11.069498 21.7279221,11.4901987 21.7279221,12 C21.7279221,12.5522847 21.2802068,13 20.7279221,13 L20.7279221,13 L16.2431968,13.0005561 L18.7781746,15.5355339 L18.855881,15.6227547 C19.1667064,16.0152724 19.1408043,16.5871178 18.7781746,16.9497475 C18.3876503,17.3402718 17.7544853,17.3402718 17.363961,16.9497475 L17.363961,16.9497475 L13.1213203,12.7071068 C13.1167905,12.7025769 13.1123131,12.6980144 13.1084549,12.6940044 C13.0931996,12.6781819 13.078461,12.6618578 13.0642662,12.6450592 L13.043614,12.619886 C13.0357852,12.6099995 13.02817,12.5999994 13.0207684,12.5898916 L13.0207684,12.5898916 L13.0075938,12.5713215 C13.0032727,12.5651249 12.9990201,12.5588771 12.9947105,12.5525459 C12.9809655,12.5318541 12.9680726,12.5107633 12.9560319,12.4893231 L12.9560319,12.4893231 L12.9455928,12.470105 L12.9455928,12.470105 L12.9359242,12.4516411 C12.9263885,12.4328058 12.9174873,12.4137318 12.9091102,12.3941685 L12.9091102,12.3941685 L12.8883673,12.3417073 C12.8805401,12.3201298 12.8734794,12.2983369 12.8671926,12.2766674 C12.8633002,12.2631192 12.8596865,12.2494531 12.8564433,12.2356592 C12.849398,12.2064797 12.8436815,12.1770448 12.8392045,12.1473319 L12.8392045,12.1473319 L12.8341458,12.0973593 L12.8321458,12.0743593 L12.8331458,12.0943593 L12.8311534,12.074406 L12.8311534,12.074406 L12.8284271,12 L12.8284309,11.9944909 L12.8355823,11.8797565 C12.8366689,11.8706892 12.8378769,11.8616591 12.8392938,11.852549 C12.8436815,11.8229552 12.849398,11.7935203 12.856358,11.7643243 C12.8596865,11.7505469 12.8633002,11.7368808 12.8671853,11.7236292 C12.8734794,11.7016631 12.8805401,11.6798702 12.8882946,11.6583931 C12.8947496,11.6406325 12.9016935,11.6231065 12.9092204,11.6055493 C12.9174873,11.5862682 12.9263885,11.5671942 12.9357724,11.5487815 C12.9430427,11.5344268 12.9506491,11.5202712 12.9586019,11.5061287 C12.9695732,11.4868315 12.981238,11.4678214 12.9936977,11.4491397 C13.0034647,11.4343693 13.0136132,11.4198734 13.0237807,11.4060166 C13.0530132,11.3665195 13.0855264,11.3286872 13.1213203,11.2928932 L13.0842734,11.3319781 L13.0842734,11.3319781 L13.1084549,11.3059956 L13.1213203,11.2928932 L17.363961,7.05025253 Z M5.29289322,7.05025253 C5.68341751,6.65972824 6.31658249,6.65972824 6.70710678,7.05025253 L6.70710678,7.05025253 L10.9626129,11.3059956 C10.9778683,11.3218181 10.9926069,11.3381422 11.0068016,11.3549408 L11.0068016,11.3549408 L11.0274538,11.380114 C11.0352827,11.3900005 11.0428979,11.4000006 11.0502994,11.4101084 L11.0502994,11.4101084 L11.063474,11.4286785 C11.0677951,11.4348751 11.0720478,11.4411229 11.0763573,11.4474541 C11.0901023,11.4681459 11.1029952,11.4892367 11.1150359,11.5106769 L11.1150359,11.5106769 L11.125475,11.529895 C11.1288133,11.5361511 11.1320871,11.5424469 11.1351436,11.5483589 C11.1446793,11.5671942 11.1535805,11.5862682 11.1619577,11.6058315 C11.1693743,11.6231065 11.1763182,11.6406325 11.1827005,11.6582927 C11.1905278,11.6798702 11.1975884,11.7016631 11.2038752,11.7233326 C11.2077676,11.7368808 11.2113814,11.7505469 11.2146245,11.7643408 C11.2216698,11.7935203 11.2273863,11.8229552 11.2318633,11.8526681 L11.2318633,11.8526681 L11.2350944,11.8770138 L11.2366633,11.8904959 L11.2366633,11.8904959 L11.2371458,11.9053593 L11.2399144,11.925594 L11.2399144,11.925594 L11.2426407,12 L11.2426369,12.0055091 L11.2354855,12.1202435 L11.2354855,12.1202435 L11.231774,12.147451 C11.2273863,12.1770448 11.2216698,12.2064797 11.2147098,12.2356757 C11.2113814,12.2494531 11.2077676,12.2631192 11.2038825,12.2763708 C11.1975884,12.2983369 11.1905278,12.3201298 11.1827732,12.3416069 C11.1763182,12.3593675 11.1693743,12.3768935 11.1618474,12.3944507 L11.1618474,12.3944507 L11.1352954,12.4512185 C11.1280251,12.4655732 11.1204187,12.4797288 11.1124659,12.4938713 C11.1014946,12.5131685 11.0898298,12.5321786 11.0773701,12.5508603 C11.0676031,12.5656307 11.0574546,12.5801266 11.0472871,12.5939834 L11.0472871,12.5939834 L11.0100521,12.6411928 L11.0100521,12.6411928 L10.9611458,12.6933593 L11.0001458,12.6513593 L10.9867944,12.6680219 L10.9867944,12.6680219 L10.9626129,12.6940044 L6.70710678,16.9497475 L6.61988597,17.0274538 C6.22736831,17.3382793 5.65552292,17.3123772 5.29289322,16.9497475 C4.90236893,16.5592232 4.90236893,15.9260582 5.29289322,15.5355339 L5.29289322,15.5355339 L7.82787103,13.0005561 L3.34314575,13 L3.21770788,12.9922086 C2.72463093,12.930502 2.34314575,12.5098013 2.34314575,12 C2.34314575,11.4477153 2.790861,11 3.34314575,11 L3.34314575,11 L7.82787103,10.9994439 L5.29289322,8.46446609 L5.21518685,8.37724528 C4.9043614,7.98472763 4.93026352,7.41288223 5.29289322,7.05025253 Z"/>
</svg>

<svg xmlns="http://www.w3.org/2000/svg" viewBox="0 0 24 24">
  <path d="M17.45 6.97a1 1 0 0 1 1.33 1.5L16.24 11h4.61a1 1 0 0 1-.12 2h-4.49l2.54 2.54.08.08a1 1 0 0 1-1.5 1.33l-4.24-4.24a.98.98 0 0 1-.06-.06l-.02-.03a1 1 0 0 1-.02-.03l-.01-.02-.02-.02a1 1 0 0 1-.03-.06l-.01-.02-.01-.02a.99.99 0 0 1-.03-.06l-.02-.05a1.04 1.04 0 0 1-.05-.2v-.07.02-.02l-.01-.07v-.12a.78.78 0 0 1 .04-.16 1.02 1.02 0 0 1 .25-.43l-.04.04.03-.02.01-.02 4.24-4.24zM5.3 7.05a1 1 0 0 1 1.42 0l4.25 4.26a1 1 0 0 1 .05.04l.02.03a1 1 0 0 1 .02.03l.01.02.02.02a1 1 0 0 1 .04.06v.02a1.6 1.6 0 0 1 .06.13 1.04 1.04 0 0 1 .05.2v.05l.01.02v.22a1.04 1.04 0 0 1-.08.24l-.02.06a1.11 1.11 0 0 1-.1.14l-.03.05-.05.05.04-.04-.01.02-.03.02-4.25 4.26-.09.08a1 1 0 0 1-1.33-1.5L7.83 13H3.22a1 1 0 0 1 .12-2h4.49L5.29 8.46l-.07-.08a1 1 0 0 1 .07-1.33z"/>
</svg>
